dist/images/icons/icon-search.svg

<svg width="23" height="22" viewBox="0 0 23 22" fill="none" xmlns="http://www.w3.org/2000/svg">
<mask id="mask0_205_50" style="mask-type:luminance" maskUnits="userSpaceOnUse" x="0" y="0" width="23" height="22">
<path d="M0.814331 0.249023H22.8005V21.1551H0.814331V0.249023Z" fill="white"/>
</mask>
<g mask="url(#mask0_205_50)">
<path fill-rule="evenodd" clip-rule="evenodd" d="M14.9987 15.5837L20.4038 20.7185C20.9391 21.2269 21.808 21.2266 22.3431 20.7182C22.8781 20.2095 22.8781 19.3835 22.3428 18.8751L16.9412 13.7439C18.0281 12.3396 18.6704 10.605 18.6704 8.72922C18.6704 4.04882 14.6718 0.249023 9.74644 0.249023C4.82113 0.249023 0.82251 4.04882 0.82251 8.72922C0.82251 13.4094 4.82113 17.2092 9.74644 17.2092C11.7092 17.2092 13.5248 16.6059 14.9987 15.5837ZM9.74644 2.85546C13.1579 2.85546 15.9276 5.48743 15.9276 8.72922C15.9276 11.971 13.1579 14.603 9.74644 14.603C6.33501 14.603 3.56533 11.971 3.56533 8.72922C3.56533 5.48743 6.33501 2.85546 9.74644 2.85546Z" fill="white"/>
</g>
</svg>

<svg width="23" height="22" fill="none" xmlns="http://www.w3.org/2000/svg"><mask id="mask0_205_50" style="mask-type:luminance" maskUnits="userSpaceOnUse" x="0" y="0" width="23" height="22"><path d="M.814.249H22.8v20.906H.814V.25z" fill="#fff"/></mask><g mask="url(#mask0_205_50)"><path fill-rule="evenodd" clip-rule="evenodd" d="M14.999 15.584l5.405 5.134a1.424 1.424 0 001.94 0 1.259 1.259 0 00-.001-1.843l-5.402-5.131a8.16 8.16 0 001.73-5.015c0-4.68-4-8.48-8.925-8.48-4.925 0-8.923 3.8-8.923 8.48 0 4.68 3.998 8.48 8.923 8.48A9.194 9.194 0 0015 15.584zM9.746 2.855c3.412 0 6.182 2.632 6.182 5.874 0 3.242-2.77 5.874-6.182 5.874-3.411 0-6.18-2.632-6.18-5.874 0-3.242 2.769-5.874 6.18-5.874z" fill="#fff"/></g></svg>
